;[name=scc lpf=1]
#opll_mode 1
#tempo 100
#title { "SCC Voice Sample"}

@s00 = { 2B343E3F3F3F3F3F3F3F3F3F3F3F3F3F3F3F3F3F3F3F3F3F3F403E2DC0CD273A }
@s01 = { C3CFD3D0D1DAE6F2000A27383D3E3C3E403F3B352A0EF8EEEFF4E9DDD4CCC6C0 }
@s02 = { 3E383230302F2B200DF6E0D0C7C5C4C4C3C1C0C6D5E9FB050B0C0D111B2A3840 }
@s03 = { CCC7C3C0C1C4CDDAED021A2D3A403E3A332C251D160F0903FDF7F0EAE4DED7D1 }
@s04 = { 3D403D36302D303A3F24E0C2DDE6D7CBC3C0C3CAD0D3D0C6C1DC203E231A2935 }
@s05 = { 05FFF2DFCCC0CE003932DCD127401AF9E8E0DDDCDEE2E5ECF2F900030A0C0E0C }
@s06 = { F5F5F1ECE5DDD4CAC0C1D708403A0E050C0703020301000000FFFFFFFDFDFBF8 }
@s07 = { 003F3F3F3F3F3F3F402BF6D2C6C4C6CACCC7C0C8EA1E3E3F3F3F3F3F3F3F3F3F }
@s08 = { 00242423211C18110B0600FBF6F3F0F0F2F7FF0A1A304758552FEAB0ADD6FF16 }
@s09 = { B2252524221D19110C0600FAF6F2F0F0F2F7FF0A1B31495A5730E9ADAAD5FF16 }
@s10 = { D13232312F272118100801F8F2EDEAEAECF4FE0E2543637B7642E1908BC5FF1E }
@s11 = { BD252625231D19120C0600FAF6F2F0EFF1F7FF0A1C324A5C5931E9ACA9D4FF17 }
@s12 = { E45B5C5955483D2C1D1002F2E6DDD7D7DCE9FC19447BB5E0D878C8332B94FD37 }
@s13 = { FF131313120F0D09060300FDFBF9F8F8F9FC00050E1A262F2D19F4D5D3EA000B }
@s14 = { 191919181713100C080400FCF9F7F5F5F7FAFF061221313D3A20F1C9C6E3000F }

;      Mode,nFreq, AL, AR, DR, SL, SR, RR
@r0 = {   0,    0,128, 32, 12,128,  2,  4}
@r1 = {   0,    0,255,255, 12,128,  2,  4}

; C G F Em /C
4567 v12@0@r1 l4o4q5
4   [c]4 [g]4 [f]4 [e]4
5   [e]4 [b]4 [a]4 [g]4
6   [g]4 [d]4 [c]4 [c]4
7 < r8[c]15c8

4567 r4

; C D Fm C /C
4567 v12@1@r1 l4o4q5
4   [c]4 [d]4  [f]4  [c]4
5   [e]4 [f+]4 [a-]4 [e]4
6   [g]4 [a]4  [c]4  [g]4
7 < r8[c]15c8

4567 r4

; C Bb DbEb C /C
4567 v12@2@r1 l4o4q5
4   [c]4 [b-]4 [d-]2[e-]2 [c]4
5   [e]4 [d]4  [f ]2[g ]2 [e]4
6   [g]4 [f]4  [a-]2[b-]2 [g]4
7 < r8[c]15c8

4567 r4

; Cm D Db Cm /C
4567 v12@3@r1 l4o4q5
4   [c]4  [d]4  [d-]4 [c]4
5   [e-]4 [f+]4 [f]4  [e-]4
6   [g]4  [a]4  [a-]4 [g]4
7 < r8[c]15c8
